share/.local/share/icons/Papirus-Nordic/22x22/apps/josm.svg

<svg width="22" height="22" version="1.1" xmlns="http://www.w3.org/2000/svg">
 <path d="m2.0145151 3.3662376v15.527182s-0.143043 0.838586 0.4689597 1.014965l5.5165251 1.592118 6.0000001-1.749999 5.148415 1.506167c0.910552 0.317401 0.846053-0.633432 0.846053-0.633432v-15.650741c0.084172-0.8133676-0.820004-0.9810453-0.820004-0.9810453l-5.174464-1.4909479-6.0000001 1.7499998-5.2026589-1.5243896s-0.7828259-0.217244-0.7828259 0.6401227z" style="opacity:.2"/>
 <path d="m2.0146484 7.7299959-1.333e-4 10.663423s-0.143043 0.838586 0.4689597 1.014965l0.2430876 0.0708 8.5820316 0.556635 2.691406-0.785316 0.988281 0.289063 5.006187 0.583672v-15.650741c0.084172-0.8133676-0.820004-0.9810453-0.820004-0.9810453l-5.174464-1.4909479-0.657227 0.191406-1.342773 1.8087512-0.878906-1.1601562-3.1210941 0.9099988-1.2841795-0.3759751z" style="fill:#ffc107"/>
 <path d="m13.342773 2.1919102-2.221679 0.6484375c-0.623514 0.6408962-0.978516 1.276738-0.978516 2.3984372 0 1.40341 0.565671 1.7000685 0.75 2.375 0.350057 1.2818525 0.48482 2.1854055 0.90332 3.2392571 0.575893 1.450694 0.09062 3.739368 0.704102 5.181641 0.349971 0.82283 0.535714 0.971502 1.5 1.40332 0.214285 0.215909 0.535435 0.647373 0.642578 0.863281 0.236681 0.476931 0.174201 0.880226 0.345703 1.238282l4.160156 1.216797c0.910553 0.317401 0.845703-0.632813 0.845703-0.632813v-0.242187c-0.443192-4.064497-3.215784-4.69367-4.371093-5.666016-1.301015-1.094962-0.469826-2.142989-0.980469-3.686523-0.121393-0.366938-0.428293-1.6190516-0.642578-1.8349606-0.964286-0.6477275-1.499861-1.2954545-1.821289-2.375-0.65374-2.1957084 1.339173-3.3652673 1.164062-4.1269532zm-7.1992186 15.878906c-0.093178-0.0072-0.18807-0.0035-0.2861325 0.01465-0.894493 0.165321-0.857701 1.187588-1.714844 0.971679-0.4374417-0.110143-1.0342163 0.05175-1.4160154 0.421875l5.2734374 1.521483 3.3085941-0.964844c-0.6656-1.015588-2.8085467-2.53288-3.3085941-1.625976-0.65625 0.283381-1.2041945-0.288703-1.8564455-0.338867z" style="fill:#0c7bd4"/>
 <path d="m11.121094 2.8405052c-0.623514 0.6408962-0.978516 1.2767382-0.978516 2.3984374 0 0.099787 0.0024 0.19212 0.0078 0.28125 0.045-0.9847813 0.389973-1.5827683 0.970703-2.1796874zm0.939453 2.828125c-0.0348 0.3490058-0.0058 0.7307321 0.119141 1.1503906 0.321428 1.0795455 0.856026 1.7272727 1.820312 2.3749996 0.214285 0.215909 0.521185 1.4670466 0.642578 1.8339846 0.510643 1.543534-0.320546 2.592538 0.980469 3.6875 1.147715 0.965954 3.890796 1.594815 4.361328 5.58789 0.01318-0.101902 0.0098-0.179687 0.0098-0.179687v-0.242188c-0.443226-4.064497-3.215819-4.693669-4.371128-5.666015-1.301015-1.094962-0.469826-2.143966-0.980469-3.6875-0.121393-0.366938-0.428293-1.6180752-0.642578-1.8339842-0.964286-0.6477275-1.498884-1.2954545-1.820312-2.375-0.067966-0.2282733-0.102978-0.4436047-0.119141-0.6503906zm-6.058594 12.40039c-0.047628 0.0023-0.0955 0.0066-0.1445312 0.01563-0.894493 0.165321-0.8577008 1.188566-1.7148438 0.972657-0.4374417-0.110143-1.0342165 0.05175-1.4160156 0.421875l0.546875 0.158203c0.2937649-0.113101 0.6093658-0.145487 0.8691406-0.08008 0.857143 0.215909 0.8203508-0.807336 1.7148438-0.972657 0.098062-0.01815 0.1919782-0.02087 0.2851562-0.01367 0.652251 0.05016 1.2011719 0.621267 1.8574219 0.337886 0.4363343-0.791352 2.1231871 0.264405 2.9882811 1.220703l0.320313-0.09375c-0.6656-1.015588-2.8085467-2.533857-3.3085941-1.626953-0.65625 0.283381-1.2051709-0.287727-1.8574219-0.337891-0.046589-0.0036-0.092997-0.0042-0.140625-2e-3z" style="opacity:.2"/>
 <path d="m2.5498047 2.7027134c-0.2293435 0.011709-0.5351563 0.1282084-0.5351563 0.6640625v4.863281c0.2056164-0.095495 0.4835155-0.2236325 0.6279297-0.2236325 0.46515 0 0.7501808 0.1075835 1.2246093 0.0459 0.2928-0.03815 0.493225-0.3171265 0.765625-0.3857425 0.257357-0.064773 0.5948755-0.04454 0.841797-0.168945 0.3370715-0.1697045 0.811082-0.6784765 1.071289-1.7734375 0.075279-0.316825-0.091797-0.663441-0.091797-0.9873048 0-0.2617772 0.073954-0.6380097 0.261719-0.8623047l-3.9189454-1.148439s-0.1094642-0.030463-0.2470703-0.023437z" style="opacity:.2"/>
 <path d="m10.892857 9.5176094-0.214286-0.8636355-1.1785711 0.9715905 0.214286 0.8636356z" style="opacity:.2"/>
 <path d="m4.9999999 16.966473 3-0.215909 1.392857-0.863636v-2.051137l-1.392857 0.863636-3 0.323864z" style="opacity:.2"/>
 <path d="m9.1785709 12.108518-0.3214281-1.597726-0.8571429 0.626136-1.285714 0.323864-0.5357145-2.6988636-2.2500001 0.539773 0.8571426 4.5880666 3.214286-0.809659z" style="opacity:.2"/>
 <path d="m17.428571 5.7392014v1.943182l1.821429 0.539772v-1.943181z" style="opacity:.2"/>
 <path d="m7.9999999 5.0914744 2.6785711-0.8636365v0.8636365l-0.642857 0.215909v0.286792l-2.0357141 0.684799-0.3214285-0.107955v-1.1874997z" style="opacity:.2"/>
 <path d="m16.035714 12.324428 1.821429 1.1875 0.642857-0.863637-1.821429-1.187499z" style="opacity:.2"/>
 <path d="m18.392578 9.0855254-0.642578 0.8642576 1.821289 1.1875 0.422851-0.568359v-0.439454z" style="opacity:.2"/>
 <path d="m16.892857 11.136928 1.821428 1.1875 0.642857-0.863636-1.821428-1.1875z" style="opacity:.2"/>
 <path d="m2.5498047 2.2026524c-0.2293435 0.011709-0.5351563 0.1282084-0.5351563 0.6640625v4.863281c0.2056164-0.095495 0.4835155-0.2236325 0.6279297-0.2236325 0.46515 0 0.7501808 0.1075835 1.2246093 0.0459 0.2928-0.03815 0.493225-0.3171265 0.765625-0.3857425 0.257357-0.064773 0.5948755-0.04454 0.841797-0.168945 0.3370715-0.1697045 0.811082-0.6784765 1.071289-1.7734375 0.075279-0.316825-0.091797-0.663441-0.091797-0.9873048 0-0.2617772 0.073954-0.6380097 0.261719-0.8623047l-3.9189454-1.148439s-0.1094642-0.030463-0.2470703-0.023437z" style="fill:#4caf50"/>
 <path d="m10.892857 9.0175484-0.214286-0.8636355-1.1785711 0.9715905 0.214286 0.8636356z" style="fill:#81c784"/>
 <path d="m4.9999999 16.466412 3-0.215909 1.392857-0.863636v-2.051137l-1.392857 0.863636-3 0.323864z" style="fill:#4d7687"/>
 <path d="m9.1785709 11.608457-0.3214281-1.597726-0.8571429 0.626136-1.285714 0.323864-0.5357145-2.6988636-2.2500001 0.539773 0.8571426 4.5880666 3.214286-0.809659z" style="fill:#df5050"/>
 <path d="m17.428571 5.2391404v1.943182l1.821429 0.539772v-1.943181z" style="fill:#ff8a65"/>
 <path d="m7.9999999 4.5914134 2.6785711-0.8636365v0.8636365l-0.642857 0.215909v0.286792l-2.0357141 0.684799-0.3214285-0.107955v-1.1874997z" style="fill:#00bcd4"/>
 <path d="m16.035714 11.824367 1.821429 1.1875 0.642857-0.863637-1.821429-1.187499z" style="fill:#b89b00"/>
 <path d="m18.392578 8.5854649-0.642578 0.8642575 1.821289 1.1874996 0.422851-0.568359v-0.4394536z" style="fill:#b89b00"/>
 <path d="m16.892857 10.636867 1.821428 1.1875 0.642857-0.863636-1.821428-1.1874996z" style="fill:#b89b00"/>
 <path d="m3.564453 9.1684724-0.321289 0.108398 0.7285156 4.2099606-0.1005859 3.511719 0.3652342-0.05566 0.099609-3.477539zm0.6718749 7.7744136-0.00781 0.257813-0.3642577 0.02149 0.00684-0.223633-0.049804 0.0078-1.8066405 1.273438v0.113281s-0.037989 0.240081 0.017578 0.490234l1.8964772-1.336907 0.213867-0.06543 3.857422-0.258789 1.928711-1.1875-0.107422-0.540039-1.821289 1.1875-3.75 0.258789z" style="fill:#646464"/>
 <ellipse cx="4.0469999" cy="17.232664" rx=".289" ry=".29100001" style="fill:#222222;stroke-linecap:round;stroke-linejoin:round;stroke-width:.172077;stroke:#ffffff"/>
 <ellipse cx="9.9280005" cy="15.721665" rx=".289" ry=".29100001" style="fill:#222222;stroke-linecap:round;stroke-linejoin:round;stroke-width:.172077;stroke:#ffffff"/>
 <ellipse cx="3.3930001" cy="9.2436638" rx=".289" ry=".29100001" style="fill:#222222;stroke-linecap:round;stroke-linejoin:round;stroke-width:.172077;stroke:#ffffff"/>
 <ellipse cx="4.1430001" cy="13.475665" rx=".289" ry=".29100001" style="fill:#222222;stroke-linecap:round;stroke-linejoin:round;stroke-width:.172077;stroke:#ffffff"/>
 <path d="m2.0145151 2.8662371v15.527182s-0.143043 0.838586 0.4689597 1.014965l5.5165251 1.592119v-17.249999l-5.2026589-1.5243896s-0.7828259-0.217244-0.7828259 0.6401227z" style="fill:#ffffff;opacity:.3"/>
 <path d="m14 19.250503 5.148415 1.506167c0.910552 0.317401 0.846053-0.633432 0.846053-0.633432v-15.650741c0.084172-0.8133676-0.820004-0.9810453-0.820004-0.9810453l-5.174464-1.4909479z" style="fill:#ffffff;opacity:.3"/>
 <path d="m14 2.000504-6.0000001 1.75-5.2031249-1.5244141s-0.7822266-0.2167416-0.7822266 0.640625v0.5c0-0.8573666 0.7822266-0.640625 0.7822266-0.640625l5.2031249 1.5244141 6.0000001-1.75 5.174804 1.4912109s0.903508 0.1671011 0.819336 0.9804685v-0.4999997c0.084172-0.8133676-0.819336-0.9804688-0.819336-0.9804688zm-11.985352 16.392577s-0.018547 0.164586 0 0.355469z" style="fill:#ffffff;opacity:.2"/>
 <path d="m17.59082 1.0014806c-0.8223 0.025322-1.552449 0.7842697-1.832031 1.2783203l-5.541992 9.9902341-0.15918 2.736328-0.057617 0.994141 0.791015-0.571289 2.175782-1.572266 0.07031-0.05078 5.661133-10.073242c0.637878-1.0686602 0.169944-2.3176395-0.527342-2.6201182-0.195107-0.0846364-0.390316-0.1171718-0.580078-0.1113281z" style="opacity:.2"/>
 <path d="m10.216797 11.770035-0.15918 2.736328 0.733398 0.422852 2.175782-1.572266z" style="fill:#d9c8b0"/>
 <path d="M 10.057617,14.506363 10,15.500504 10.791015,14.929215 Z" style="fill:#505050"/>
 <path d="m17.59082 0.50148059c-0.8223 0.0253225-1.552449 0.78426971-1.832031 1.2783203l-5.541992 9.9902341 2.75 1.586914 0.07031-0.05078 5.661133-10.073242c0.637878-1.0686602 0.169944-2.3176395-0.527342-2.6201182-0.195107-0.08463645-0.390316-0.1171718-0.580078-0.11132815z" style="fill:#a15f34"/>
 <path d="m17.589844 0.50066139c-0.822301 0.0253225-1.552449 0.78524631-1.832032 1.2792969l-5.541015 9.9902347-0.160157 2.736328-0.05664 0.99414 0.02929-0.02148 0.02735-0.472656 0.160156-2.736328 5.541016-9.9902347c0.279582-0.4940506 1.009731-1.2539744 1.832031-1.2792969 0.189762-0.00584 0.384971 0.026692 0.580078 0.1113281 0.410294 0.1779779 0.741537 0.6852222 0.814454 1.2890575 0.09864-0.8113138-0.294437-1.5634814-0.814453-1.7890615-0.195108-0.0846365-0.390317-0.1171718-0.580078-0.11132815z" style="fill:#ffffff;opacity:.2"/>
</svg>

<svg xmlns="http://www.w3.org/2000/svg" width="22" height="22" version="1.1">
 <path style="opacity:0.2" d="M 2.0145151,3.3657342 V 18.892917 c 0,0 -0.143043,0.838586 0.4689597,1.014965 L 7.9999999,21.5 14,19.750001 l 5.148415,1.506167 c 0.910552,0.317401 0.846053,-0.633432 0.846053,-0.633432 V 4.9719945 C 20.07864,4.1586269 19.174464,3.9909492 19.174464,3.9909492 L 14,2.5000013 7.9999999,4.2500011 2.797341,2.7256115 c 0,0 -0.7828259,-0.217244 -0.7828259,0.6401227 z"/>
 <path style="fill:#ffc107" d="M 2.0145151,2.8657337 V 18.392916 c 0,0 -0.143043,0.838586 0.4689597,1.014965 L 7.9999999,21 14,19.25 l 5.148415,1.506167 c 0.910552,0.317401 0.846053,-0.633432 0.846053,-0.633432 V 4.471994 C 20.07864,3.6586264 19.174464,3.4909487 19.174464,3.4909487 L 14,2.0000008 7.9999999,3.7500006 2.797341,2.225611 c 0,0 -0.7828259,-0.217244 -0.7828259,0.6401227 z"/>
 <path style="fill:#0c7bd4" d="m 13.342773,2.1914068 -2.221679,0.6484375 c -0.623514,0.6408962 -0.978516,1.276738 -0.978516,2.3984372 0,1.40341 0.565671,1.7000685 0.75,2.375 0.350057,1.2818525 0.48482,2.1854055 0.90332,3.2392575 0.575893,1.450694 0.09062,3.739368 0.704102,5.181641 0.349971,0.82283 0.535714,0.971502 1.5,1.40332 0.214285,0.215909 0.535435,0.647373 0.642578,0.863281 0.236681,0.476931 0.174201,0.880226 0.345703,1.238282 l 4.160156,1.216797 c 0.910553,0.317401 0.845703,-0.632813 0.845703,-0.632813 V 19.88086 C 19.550948,15.816363 16.778356,15.18719 15.623047,14.214844 14.322032,13.119882 15.153221,12.071855 14.642578,10.528321 14.521185,10.161383 14.214285,8.909269 14,8.69336 13.035714,8.0456325 12.500139,7.3979055 12.178711,6.31836 11.524971,4.1226516 13.517884,2.9530927 13.342773,2.1914068 Z M 6.1435544,18.070313 c -0.093178,-0.0072 -0.18807,-0.0035 -0.2861325,0.01465 -0.894493,0.165321 -0.857701,1.187588 -1.714844,0.971679 -0.4374417,-0.110143 -1.0342163,0.05175 -1.4160154,0.421875 L 7.9999999,21 11.308594,20.035156 c -0.6656,-1.015588 -2.8085467,-2.53288 -3.3085941,-1.625976 -0.65625,0.283381 -1.2041945,-0.288703 -1.8564455,-0.338867 z"/>
 <path style="fill:#4caf50" d="M 2.5498047,2.202149 C 2.3204612,2.213858 2.0146484,2.3303574 2.0146484,2.8662115 v 4.863281 C 2.2202648,7.6339975 2.4981639,7.50586 2.6425781,7.50586 c 0.46515,0 0.7501808,0.1075835 1.2246093,0.0459 0.2928,-0.03815 0.493225,-0.3171265 0.765625,-0.3857425 0.257357,-0.064773 0.5948755,-0.04454 0.841797,-0.168945 C 5.8116809,6.827368 6.2856914,6.318596 6.5458984,5.223635 6.6211769,4.90681 6.4541014,4.560194 6.4541014,4.2363302 c 0,-0.2617772 0.073954,-0.6380097 0.261719,-0.8623047 L 2.796875,2.2255865 c 0,0 -0.1094642,-0.030463 -0.2470703,-0.023437 z"/>
 <path style="fill:#81c784" d="M 10.892857,9.017045 10.678571,8.1534095 9.4999999,9.125 9.7142859,9.988636 Z"/>
 <path style="fill:#4d7687" d="m 4.9999999,16.465909 3,-0.215909 1.392857,-0.863636 v -2.051137 l -1.392857,0.863636 -3,0.323864 z"/>
 <path style="fill:#df5050" d="M 9.1785709,11.607954 8.8571428,10.010228 7.9999999,10.636364 6.7142859,10.960228 6.1785714,8.261364 3.9285713,8.801137 l 0.8571426,4.588067 3.214286,-0.809659 z"/>
 <path style="fill:#ff8a65" d="M 17.428571,5.238637 V 7.181819 L 19.25,7.721591 V 5.77841 Z"/>
 <path style="fill:#00bcd4" d="M 7.9999999,4.59091 10.678571,3.7272735 V 4.59091 L 10.035714,4.806819 V 5.093611 L 7.9999999,5.77841 7.6785714,5.670455 V 4.4829553 Z"/>
 <path style="fill:#b89b00" d="m 16.035714,11.823864 1.821429,1.1875 L 18.5,12.147727 16.678571,10.960228 Z"/>
 <path style="fill:#b89b00" d="M 18.392578,8.5849615 17.75,9.449219 l 1.821289,1.1875 0.422851,-0.568359 V 9.628906 Z"/>
 <path style="fill:#b89b00" d="m 16.892857,10.636364 1.821428,1.1875 0.642857,-0.863636 -1.821428,-1.1875 z"/>
 <path style="fill:#646464" d="m 3.564453,9.167969 -0.321289,0.108398 0.7285156,4.209961 -0.1005859,3.511719 0.3652342,-0.05566 0.099609,-3.477539 z m 0.6718749,7.774414 -0.00781,0.257813 -0.3642577,0.02149 0.00684,-0.223633 -0.049804,0.0078 -1.8066405,1.273438 v 0.113281 c 0,0 -0.037989,0.240081 0.017578,0.490234 l 1.8964772,-1.336907 0.213867,-0.06543 3.857422,-0.258789 1.928711,-1.1875 -0.107422,-0.540039 -1.821289,1.1875 -3.75,0.258789 z"/>
 <ellipse style="fill:#222222;stroke:#ffffff;stroke-width:0.17207669;stroke-linecap:round;stroke-linejoin:round" cx="4.047" cy="17.233" rx=".289" ry=".291"/>
 <ellipse style="fill:#222222;stroke:#ffffff;stroke-width:0.17207669;stroke-linecap:round;stroke-linejoin:round" cx="9.929" cy="15.721" rx=".289" ry=".291"/>
 <ellipse style="fill:#222222;stroke:#ffffff;stroke-width:0.17207669;stroke-linecap:round;stroke-linejoin:round" cx="3.393" cy="9.244" rx=".289" ry=".291"/>
 <ellipse style="fill:#222222;stroke:#ffffff;stroke-width:0.17207669;stroke-linecap:round;stroke-linejoin:round" cx="4.143" cy="13.476" rx=".289" ry=".291"/>
 <path style="opacity:0.3;fill:#ffffff" d="M 2.0145151,2.8657337 V 18.392916 c 0,0 -0.143043,0.838586 0.4689597,1.014965 L 7.9999999,21 V 3.7500006 L 2.797341,2.225611 c 0,0 -0.7828259,-0.217244 -0.7828259,0.6401227 z"/>
 <path style="opacity:0.3;fill:#ffffff" d="m 14,19.25 5.148415,1.506167 c 0.910552,0.317401 0.846053,-0.633432 0.846053,-0.633432 V 4.471994 C 20.07864,3.6586264 19.174464,3.4909487 19.174464,3.4909487 L 14,2.0000008 Z"/>
 <path style="opacity:0.2;fill:#ffffff" d="m 14,2.0000006 -6.0000001,1.75 L 2.796875,2.2255865 c 0,0 -0.7822266,-0.2167416 -0.7822266,0.640625 v 0.5 c 0,-0.8573666 0.7822266,-0.640625 0.7822266,-0.640625 L 7.9999999,4.2500006 14,2.5000006 19.174804,3.9912115 c 0,0 0.903508,0.1671011 0.819336,0.9804685 V 4.4716803 C 20.078312,3.6583127 19.174804,3.4912115 19.174804,3.4912115 Z M 2.0146484,18.392578 c 0,0 -0.018547,0.164586 0,0.355469 z"/>
 <g transform="matrix(0.49999999,0,0,0.49999999,-0.99999992,-0.4999993)">
  <path style="opacity:0.1" d="M 37.181641,3.0019531 C 35.53704,3.0525981 34.076743,4.5704926 33.517578,5.5585938 L 22.433594,25.539062 22.115234,31.011719 22,33 23.582031,31.857422 27.933594,28.712891 28.074219,28.611328 39.396484,8.4648438 C 40.672237,6.3275254 39.736369,3.8295667 38.341797,3.2246094 37.951582,3.0553365 37.561164,2.9902658 37.181641,3.0019531 Z"/>
  <path style="fill:#b1a390" d="m 22.433594,24.539062 -0.31836,5.472657 1.466797,0.845703 4.351563,-3.144531 z"/>
  <path style="fill:#505050" d="M 22.115234,30.011719 22,32 23.582031,30.857422 Z"/>
  <path style="fill:#a15f34" d="m 37.181641,2.0019531 c -1.644601,0.050645 -3.104898,1.5685395 -3.664063,2.5566407 l -11.083984,19.9804682 5.5,3.173829 0.140625,-0.101563 L 39.396484,7.4648438 C 40.672237,5.3275254 39.736369,2.8295667 38.341797,2.2246094 37.951582,2.0553365 37.561164,1.9902658 37.181641,2.0019531 Z"/>
 </g>
</svg>
